static/assets/images/exchanges/azbit.svg

<svg width="276" height="256" viewBox="0 0 276 256" fill="none" xmlns="http://www.w3.org/2000/svg">
<path fill-rule="evenodd" clip-rule="evenodd" d="M0.0410156 159.91H129.042L113.078 132.343C111.507 129.636 109.251 127.39 106.537 125.828C103.824 124.267 100.747 123.445 97.6149 123.444H63.3927L92.6243 72.9434L198.566 256L275.318 123.444H233.082L198.566 183.064L92.6243 0L0.0410156 159.91Z" fill="#18C994"/>
</svg>

<svg xmlns="http://www.w3.org/2000/svg" fill="none" viewBox="0 0 276 256"><path fill="#18C994" fill-rule="evenodd" d="M.041 159.91h129.001l-15.964-27.567a17.86 17.86 0 0 0-6.541-6.515 17.9 17.9 0 0 0-8.922-2.384H63.393l29.231-50.5L198.566 256l76.752-132.556h-42.236l-34.516 59.62L92.624 0z" clip-rule="evenodd"/></svg>
